**harm	**harte	**timestamp	**phrase	**leadinstrument	**kern
*M4/4	*M4/4	*	*	*	*
*D:	*D:	*	*	*	*D:
1r;	N	0	.	r	1r;
=1	=1	=1	=1	=1	=1
*>A_intro	*>A_intro	*>A_intro	*>A_intro	*>A_intro	*>A_intro
1I	D:1	1.271	newline	synthesizer	1D 1f# 1a
=2	=2	=2	=2	=2	=2
1I	D:1	3.192	.	synthesizer	1D 1f# 1a
=3	=3	=3	=3	=3	=3
1I	D:1	5.114	.	synthesizer	1D 1f# 1a
=4	=4	=4	=4	=4	=4
1I	D:1	7.035	.	synthesizer	1D 1f# 1a
=5	=5	=5	=5	=5	=5
1I	D:maj	8.957	newline	synthesizer	1D 1f# 1a
=6	=6	=6	=6	=6	=6
1IId	E:maj/b7	10.903	.	synthesizer	1e 1g# 1b
=7	=7	=7	=7	=7	=7
1I	D:maj	12.849	.	synthesizer	1D 1f# 1a
=8	=8	=8	=8	=8	=8
1IId	E:maj/b7	14.796	.	synthesizer	1e 1g# 1b
=9	=9	=9	=9	=9	=9
1I	D:maj	16.742	newline	synthesizer	1D 1f# 1a
=10	=10	=10	=10	=10	=10
1IId	E:maj/b7	18.726	.	synthesizer	1e 1g# 1b
=11	=11	=11	=11	=11	=11
1I	D:maj	20.71	.	synthesizer	1D 1f# 1a
=12	=12	=12	=12	=12	=12
1IId	E:maj/b7	22.694	.	synthesizer	1e 1g# 1b
=13	=13	=13	=13	=13	=13
*>A_chorus	*>A_chorus	*>A_chorus	*>A_chorus	*>A_chorus	*>A_chorus
1I	D:1	24.677	newline	voice	1D 1f# 1a
=14	=14	=14	=14	=14	=14
1I	D:1	26.649	.	voice	1D 1f# 1a
=15	=15	=15	=15	=15	=15
1I	D:1	28.62	.	voice	1D 1f# 1a
=16	=16	=16	=16	=16	=16
1I	D:1	30.591	.	voice	1D 1f# 1a
=17	=17	=17	=17	=17	=17
1I	D:maj	32.562	newline	voice	1D 1f# 1a
=18	=18	=18	=18	=18	=18
1IId	E:maj/b7	34.517	.	voice	1e 1g# 1b
=19	=19	=19	=19	=19	=19
1I	D:maj	36.471	.	voice	1D 1f# 1a
=20	=20	=20	=20	=20	=20
1IId	E:maj/b7	38.426	.	voice	1e 1g# 1b
=21	=21	=21	=21	=21	=21
1I	D:maj	40.38	newline	voice	1D 1f# 1a
=22	=22	=22	=22	=22	=22
1IId	E:maj/b7	42.334	.	voice	1e 1g# 1b
=23	=23	=23	=23	=23	=23
1I	D:maj	44.288	.	voice	1D 1f# 1a
=24	=24	=24	=24	=24	=24
1IId	E:maj/b7	46.243	.	voice	1e 1g# 1b
=25	=25	=25	=25	=25	=25
*>A2_verse	*>A2_verse	*>A2_verse	*>A2_verse	*>A2_verse	*>A2_verse
1I	D:1	48.197	newline	voice	1D 1f# 1a
=26	=26	=26	=26	=26	=26
1I	D:1	50.175	.	voice	1D 1f# 1a
=27	=27	=27	=27	=27	=27
1I	D:1	52.153	.	voice	1D 1f# 1a
=28	=28	=28	=28	=28	=28
1I	D:1	54.131	.	voice	1D 1f# 1a
=29	=29	=29	=29	=29	=29
1I	D:maj	56.109	newline	voice	1D 1f# 1a
=30	=30	=30	=30	=30	=30
1IId	E:maj/b7	58.081	.	voice	1e 1g# 1b
=31	=31	=31	=31	=31	=31
1I	D:maj	60.053	.	voice	1D 1f# 1a
=32	=32	=32	=32	=32	=32
1IId	E:maj/b7	62.026	.	voice	1e 1g# 1b
=33	=33	=33	=33	=33	=33
*>A_chorus	*>A_chorus	*>A_chorus	*>A_chorus	*>A_chorus	*>A_chorus
1I	D:1	63.998	newline	voice	1D 1f# 1a
=34	=34	=34	=34	=34	=34
1I	D:1	65.94	.	voice	1D 1f# 1a
=35	=35	=35	=35	=35	=35
1I	D:1	67.882	.	voice	1D 1f# 1a
=36	=36	=36	=36	=36	=36
1I	D:1	69.824	.	voice	1D 1f# 1a
=37	=37	=37	=37	=37	=37
1I	D:maj	71.766	newline	voice	1D 1f# 1a
=38	=38	=38	=38	=38	=38
1IId	E:maj/b7	73.728	.	voice	1e 1g# 1b
=39	=39	=39	=39	=39	=39
1I	D:maj	75.69	.	voice	1D 1f# 1a
=40	=40	=40	=40	=40	=40
1IId	E:maj/b7	77.652	.	voice	1e 1g# 1b
=41	=41	=41	=41	=41	=41
1I	D:maj	79.615	newline	voice	1D 1f# 1a
=42	=42	=42	=42	=42	=42
1IId	E:maj/b7	81.587	.	voice	1e 1g# 1b
=43	=43	=43	=43	=43	=43
1I	D:maj	83.56	.	voice	1D 1f# 1a
=44	=44	=44	=44	=44	=44
1IId	E:maj/b7	85.532	.	voice	1e 1g# 1b
=45	=45	=45	=45	=45	=45
*>A2_verse	*>A2_verse	*>A2_verse	*>A2_verse	*>A2_verse	*>A2_verse
1I	D:1	87.505	newline	voice	1D 1f# 1a
=46	=46	=46	=46	=46	=46
1I	D:1	89.468	.	voice	1D 1f# 1a
=47	=47	=47	=47	=47	=47
1I	D:1	91.432	.	voice	1D 1f# 1a
=48	=48	=48	=48	=48	=48
1I	D:1	93.396	.	voice	1D 1f# 1a
=49	=49	=49	=49	=49	=49
1I	D:maj	95.359	newline	voice	1D 1f# 1a
=50	=50	=50	=50	=50	=50
1IId	E:maj/b7	97.317	.	voice	1e 1g# 1b
=51	=51	=51	=51	=51	=51
1I	D:maj	99.275	.	voice	1D 1f# 1a
=52	=52	=52	=52	=52	=52
1IId	E:maj/b7	101.232	.	voice	1e 1g# 1b
=53	=53	=53	=53	=53	=53
*>A3_chorus	*>A3_chorus	*>A3_chorus	*>A3_chorus	*>A3_chorus	*>A3_chorus
1I	D:1	103.19	newline	voice	1D 1f# 1a
=54	=54	=54	=54	=54	=54
1I	D:1	105.161	.	voice	1D 1f# 1a
=55	=55	=55	=55	=55	=55
1I	D:1	107.133	.	voice	1D 1f# 1a
=56	=56	=56	=56	=56	=56
1I	D:1	109.104	.	voice	1D 1f# 1a
=57	=57	=57	=57	=57	=57
1I	D:maj	111.076	newline	voice	1D 1f# 1a
=58	=58	=58	=58	=58	=58
1IId	E:maj/b7	113.03	.	voice	1e 1g# 1b
=59	=59	=59	=59	=59	=59
1I	D:maj	114.984	.	voice	1D 1f# 1a
=60	=60	=60	=60	=60	=60
1IId	E:maj/b7	116.938	.	voice	1e 1g# 1b
=61	=61	=61	=61	=61	=61
1I	D:maj	118.892	newline	voice	1D 1f# 1a
=62	=62	=62	=62	=62	=62
1IId	E:maj/b7	120.858	.	voice	1e 1g# 1b
=63	=63	=63	=63	=63	=63
1I	D:maj	122.824	.	voice	1D 1f# 1a
=64	=64	=64	=64	=64	=64
1IId	E:maj/b7	124.79	.	voice	1e 1g# 1b
=65	=65	=65	=65	=65	=65
1I	D:maj	126.756	newline	voice	1D 1f# 1a
=66	=66	=66	=66	=66	=66
1IId	E:maj/b7	128.717	.	voice	1e 1g# 1b
=67	=67	=67	=67	=67	=67
1I	D:maj	130.678	.	voice	1D 1f# 1a
=68	=68	=68	=68	=68	=68
1IId	E:maj/b7	132.639	.	voice	1e 1g# 1b
=69	=69	=69	=69	=69	=69
1I	D:maj	134.601	newline	voice	1D 1f# 1a
=70	=70	=70	=70	=70	=70
1IId	E:maj/b7	136.568	.	voice	1e 1g# 1b
=71	=71	=71	=71	=71	=71
1I	D:maj	138.536	.	voice	1D 1f# 1a
=72	=72	=72	=72	=72	=72
1IId	E:maj/b7	140.504	.	voice	1e 1g# 1b
=73	=73	=73	=73	=73	=73
*>B_interlude	*>B_interlude	*>B_interlude	*>B_interlude	*>B_interlude	*>B_interlude
1I	D:maj	142.471	newline	voice	1D 1f# 1a
=74	=74	=74	=74	=74	=74
1IId	E:maj/b7	144.433	.	voice	1e 1g# 1b
=75	=75	=75	=75	=75	=75
1I	D:maj	146.394	.	voice	1D 1f# 1a
=76	=76	=76	=76	=76	=76
1IId	E:maj/b7	148.356	.	voice	1e 1g# 1b
=77	=77	=77	=77	=77	=77
*>A2_verse	*>A2_verse	*>A2_verse	*>A2_verse	*>A2_verse	*>A2_verse
1I	D:1	150.317	newline	voice	1D 1f# 1a
=78	=78	=78	=78	=78	=78
1I	D:1	152.279	.	voice	1D 1f# 1a
=79	=79	=79	=79	=79	=79
1I	D:1	154.241	.	voice	1D 1f# 1a
=80	=80	=80	=80	=80	=80
1I	D:1	156.202	.	voice	1D 1f# 1a
=81	=81	=81	=81	=81	=81
1I	D:maj	158.164	newline	voice	1D 1f# 1a
=82	=82	=82	=82	=82	=82
1IId	E:maj/b7	160.137	.	voice	1e 1g# 1b
=83	=83	=83	=83	=83	=83
1I	D:maj	162.11	.	voice	1D 1f# 1a
=84	=84	=84	=84	=84	=84
1IId	E:maj/b7	164.083	.	voice	1e 1g# 1b
=85	=85	=85	=85	=85	=85
*>A3_chorus	*>A3_chorus	*>A3_chorus	*>A3_chorus	*>A3_chorus	*>A3_chorus
1I	D:1	166.057	newline	voice	1D 1f# 1a
=86	=86	=86	=86	=86	=86
1I	D:1	168.003	.	voice	1D 1f# 1a
=87	=87	=87	=87	=87	=87
1I	D:1	169.95	.	voice	1D 1f# 1a
=88	=88	=88	=88	=88	=88
1I	D:1	171.896	.	voice	1D 1f# 1a
=89	=89	=89	=89	=89	=89
1I	D:maj	173.842	newline	voice	1D 1f# 1a
=90	=90	=90	=90	=90	=90
1IId	E:maj/b7	175.802	.	voice	1e 1g# 1b
=91	=91	=91	=91	=91	=91
1I	D:maj	177.762	.	voice	1D 1f# 1a
=92	=92	=92	=92	=92	=92
1IId	E:maj/b7	179.721	.	voice	1e 1g# 1b
=93	=93	=93	=93	=93	=93
1I	D:maj	181.681	newline	voice	1D 1f# 1a
=94	=94	=94	=94	=94	=94
1IId	E:maj/b7	183.651	.	voice	1e 1g# 1b
=95	=95	=95	=95	=95	=95
1I	D:maj	185.62	.	voice	1D 1f# 1a
=96	=96	=96	=96	=96	=96
1IId	E:maj/b7	187.59	.	voice	1e 1g# 1b
=97	=97	=97	=97	=97	=97
1I	D:maj	189.56	newline	voice	1D 1f# 1a
=98	=98	=98	=98	=98	=98
1IId	E:maj/b7	191.536	.	voice	1e 1g# 1b
=99	=99	=99	=99	=99	=99
1I	D:maj	193.512	.	voice	1D 1f# 1a
=100	=100	=100	=100	=100	=100
1IId	E:maj/b7	195.488	.	voice	1e 1g# 1b
=101	=101	=101	=101	=101	=101
1I	D:maj	197.464	newline	voice	1D 1f# 1a
=102	=102	=102	=102	=102	=102
1IId	E:maj/b7	199.423	.	voice	1e 1g# 1b
=103	=103	=103	=103	=103	=103
1I	D:maj	201.381	.	voice	1D 1f# 1a
=104	=104	=104	=104	=104	=104
1IId	E:maj/b7	203.34	.	voice	1e 1g# 1b
=105	=105	=105	=105	=105	=105
*>C_solo	*>C_solo	*>C_solo	*>C_solo	*>C_solo	*>C_solo
1I	D:1	205.298	newline	guitar	1D 1f# 1a
=106	=106	=106	=106	=106	=106
1I	D:1	207.253	.	guitar	1D 1f# 1a
=107	=107	=107	=107	=107	=107
1I	D:1	209.207	.	guitar	1D 1f# 1a
=108	=108	=108	=108	=108	=108
1I	D:1	211.162	.	guitar	1D 1f# 1a
=109	=109	=109	=109	=109	=109
1I	D:1	213.116	newline	guitar	1D 1f# 1a
=110	=110	=110	=110	=110	=110
1I	D:1	215.081	.	guitar	1D 1f# 1a
=111	=111	=111	=111	=111	=111
1I	D:1	217.046	.	guitar	1D 1f# 1a
=112	=112	=112	=112	=112	=112
1I	D:1	219.01	.	guitar	1D 1f# 1a
=113	=113	=113	=113	=113	=113
*>B_interlude	*>B_interlude	*>B_interlude	*>B_interlude	*>B_interlude	*>B_interlude
1I	D:maj	220.975	newline	voice	1D 1f# 1a
=114	=114	=114	=114	=114	=114
1IId	E:maj/b7	222.937	.	voice	1e 1g# 1b
=115	=115	=115	=115	=115	=115
1I	D:maj	224.898	.	voice	1D 1f# 1a
=116	=116	=116	=116	=116	=116
1IId	E:maj/b7	226.86	.	voice	1e 1g# 1b
=117	=117	=117	=117	=117	=117
*>A2_verse	*>A2_verse	*>A2_verse	*>A2_verse	*>A2_verse	*>A2_verse
1I	D:1	228.822	newline	voice	1D 1f# 1a
=118	=118	=118	=118	=118	=118
1I	D:1	230.793	.	voice	1D 1f# 1a
=119	=119	=119	=119	=119	=119
1I	D:1	232.764	.	voice	1D 1f# 1a
=120	=120	=120	=120	=120	=120
1I	D:1	234.735	.	voice	1D 1f# 1a
=121	=121	=121	=121	=121	=121
1I	D:maj	236.706	newline	voice	1D 1f# 1a
=122	=122	=122	=122	=122	=122
1IId	E:maj/b7	238.67	.	voice	1e 1g# 1b
=123	=123	=123	=123	=123	=123
1I	D:maj	240.634	.	voice	1D 1f# 1a
=124	=124	=124	=124	=124	=124
1IId	E:maj/b7	242.598	.	voice	1e 1g# 1b
=125	=125	=125	=125	=125	=125
*>A4_chorus	*>A4_chorus	*>A4_chorus	*>A4_chorus	*>A4_chorus	*>A4_chorus
1I	D:1	244.562	newline	voice	1D 1f# 1a
=126	=126	=126	=126	=126	=126
1I	D:1	246.518	.	voice	1D 1f# 1a
=127	=127	=127	=127	=127	=127
1I	D:1	248.474	.	voice	1D 1f# 1a
=128	=128	=128	=128	=128	=128
1I	D:1	250.43	.	voice	1D 1f# 1a
=129	=129	=129	=129	=129	=129
1I	D:maj	252.386	newline	voice	1D 1f# 1a
=130	=130	=130	=130	=130	=130
1IId	E:maj/b7	254.346	.	voice	1e 1g# 1b
=131	=131	=131	=131	=131	=131
1I	D:maj	256.306	.	voice	1D 1f# 1a
=132	=132	=132	=132	=132	=132
1IId	E:maj/b7	258.265	.	voice	1e 1g# 1b
=133	=133	=133	=133	=133	=133
1I	D:maj	260.225	newline	voice	1D 1f# 1a
=134	=134	=134	=134	=134	=134
1IId	E:maj/b7	262.204	.	voice	1e 1g# 1b
=135	=135	=135	=135	=135	=135
1I	D:maj	264.183	.	voice	1D 1f# 1a
=136	=136	=136	=136	=136	=136
1IId	E:maj/b7	266.162	.	voice	1e 1g# 1b
=137	=137	=137	=137	=137	=137
1I	D:maj	268.141	newline	voice	1D 1f# 1a
=138	=138	=138	=138	=138	=138
1IId	E:maj/b7	270.089	.	voice	1e 1g# 1b
=139	=139	=139	=139	=139	=139
1I	D:maj	272.037	.	voice	1D 1f# 1a
=140	=140	=140	=140	=140	=140
1IId	E:maj/b7	273.985	.	voice	1e 1g# 1b
=141	=141	=141	=141	=141	=141
1I	D:maj	275.933	newline	voice	1D 1f# 1a
=142	=142	=142	=142	=142	=142
1IId	E:maj/b7	277.909	.	voice	1e 1g# 1b
=143	=143	=143	=143	=143	=143
1I	D:maj	279.885	.	voice	1D 1f# 1a
=144	=144	=144	=144	=144	=144
1IId	E:maj/b7	281.86	.	voice	1e 1g# 1b
=145	=145	=145	=145	=145	=145
1I	D:maj	283.836	newline	voice	1D 1f# 1a
=146	=146	=146	=146	=146	=146
1IId	E:maj/b7	285.789	.	voice	1e 1g# 1b
=147	=147	=147	=147	=147	=147
1I	D:maj	287.742	.	voice	1D 1f# 1a
=148	=148	=148	=148	=148	=148
1IId	E:maj/b7	289.695	.	voice	1e 1g# 1b
=149	=149	=149	=149	=149	=149
1I	D:maj	291.649	newline	voice	1D 1f# 1a
=150	=150	=150	=150	=150	=150
1IId	E:maj/b7	293.607	.	voice	1e 1g# 1b
=151	=151	=151	=151	=151	=151
1I	D:maj	295.566	.	voice	1D 1f# 1a
=152	=152	=152	=152	=152	=152
1IId	E:maj/b7	297.524	.	voice	1e 1g# 1b
=153	=153	=153	=153	=153	=153
1I	D:maj	299.482	newline	voice	1D 1f# 1a
=154	=154	=154	=154	=154	=154
1IId	E:maj/b7	301.44	.	voice	1e 1g# 1b
=155	=155	=155	=155	=155	=155
1I	D:maj	303.398	.	voice	1D 1f# 1a
=156	=156	=156	=156	=156	=156
1IId	E:maj/b7	305.356	.	voice	1e 1g# 1b
=157	=157	=157	=157	=157	=157
1r	N	307.313	newline	voice	1r
=158	=158	=158	=158	=158	=158
1r	N	309.282	.	voice	1r
=159	=159	=159	=159	=159	=159
1r	N	311.251	.	voice	1r
=160	=160	=160	=160	=160	=160
1r	N	313.221	.	voice	1r
=161	=161	=161	=161	=161	=161
1r	N	315.19	newline	voice	1r
=162	=162	=162	=162	=162	=162
1r	N	317.142	.	voice	1r
=163	=163	=163	=163	=163	=163
1r	N	319.094	.	voice	1r
=164	=164	=164	=164	=164	=164
1r	N	321.046	.	voice	1r
=165	=165	=165	=165	=165	=165
1r	N	322.998	newline	voice	1r
=166	=166	=166	=166	=166	=166
1r	N	324.948	.	voice	1r
=167	=167	=167	=167	=167	=167
1r	N	326.899	.	voice	1r
=168	=168	=168	=168	=168	=168
1r	N	328.849	.	voice	1r
=169	=169	=169	=169	=169	=169
1r	N	330.8	newline	voice	1r
=170	=170	=170	=170	=170	=170
1r	N	332.752	.	voice	1r
=171	=171	=171	=171	=171	=171
1r	N	334.705	.	voice	1r
=172	=172	=172	=172	=172	=172
1r	N	336.657	.	voice	1r
=173	=173	=173	=173	=173	=173
1I	D:maj	338.609	newline	voice	1D 1f# 1a
=174	=174	=174	=174	=174	=174
1IId	E:maj/b7	340.573	.	voice	1e 1g# 1b
=175	=175	=175	=175	=175	=175
1I	D:maj	342.537	.	voice	1D 1f# 1a
=176	=176	=176	=176	=176	=176
1IId	E:maj/b7	344.5	.	voice	1e 1g# 1b
=177	=177	=177	=177	=177	=177
*>_fadeout	*>_fadeout	*>_fadeout	*>_fadeout	*>_fadeout	*>_fadeout
1I	D:maj	346.464	newline	voice	1D 1f# 1a
=178	=178	=178	=178	=178	=178
1IId	E:maj/b7	348.421	.	voice	1e 1g# 1b
=179	=179	=179	=179	=179	=179
1I	D:maj	350.379	.	voice	1D 1f# 1a
=180	=180	=180	=180	=180	=180
1IId	E:maj/b7	352.336	.	voice	1e 1g# 1b
=181	=181	=181	=181	=181	=181
1I	D:maj	354.294	newline	voice	1D 1f# 1a
=182	=182	=182	=182	=182	=182
1IId	E:maj/b7	356.258	.	voice	1e 1g# 1b
=183	=183	=183	=183	=183	=183
1I	D:maj	358.221	.	voice	1D 1f# 1a
=184	=184	=184	=184	=184	=184
1IId	E:maj/b7	360.185	.	voice	1e 1g# 1b
1r;	N	362.148	.	r	1r;
1r;	N	362.447	.	r	1r;
*-	*-	*-	*-	*-	*-
!!!OTL: Wanna Be Startin' Somethin'
!!!COC: Michael Jackson
!!!BillboardChartDate: 1983/09/03
!!!BillboardPeak: 5
!!!BillboardWeeksOnChart: 15
!!!SampleTargetRank: 89
!!!SampleActualRank: 89
!!!SampleID#: 0223
!!!RDF**harmony: **recip + pitch class of root + harmonic quality
!!!RDF**harte: Chris Harte's syntax, used by MIREX
!!!RDF**phrase: newline = linebreak in original McGill transcription
!!!RDF**timestamp: McGill audio timestamp in seconds
!!!RDF**leadinstrument: original McGill primary instrumentation annotation
!!!RDT: 2017/01/12/
!!!ENC: Nathaniel Condit-Schultz
!!!EST: Awating manual error checking and editing.
